assets/icons/icon-arrow-alt__up/web/icon-arrow-alt__up.svg

<?xml version="1.0" encoding="UTF-8" standalone="no"?>
<svg width="48px" height="48px" viewBox="0 0 48 48" version="1.1" xmlns="http://www.w3.org/2000/svg" xmlns:xlink="http://www.w3.org/1999/xlink">
    <!-- Generator: Sketch 45.2 (43514) - http://www.bohemiancoding.com/sketch -->
    <title>icon-arrow-alt__up</title>
    <desc>Created with Sketch.</desc>
    <defs></defs>
    <g id="Symbols" stroke="none" stroke-width="1" fill="none" fill-rule="evenodd">
        <g id="icon-arrow-alt__up" fill="#2D2D2D">
            <path d="M22.9611196,17.6878908 L21.8706669,18.7783435 C21.4837441,19.1652664 20.8562213,19.1650695 20.4629743,18.7718226 C20.07245,18.3812983 20.0747552,17.7458282 20.4564534,17.36413 L23.2979224,14.5226609 C23.4903145,14.3302688 23.7421935,14.2335898 23.9951787,14.2333527 C24.2567746,14.2368799 24.5093045,14.3328714 24.6990941,14.5226609 L27.5405631,17.36413 C27.927486,17.7510528 27.9272891,18.3785756 27.5340422,18.7718226 C27.1435179,19.1623469 26.5080478,19.1600417 26.1263495,18.7783435 L24.9611196,17.6131136 L24.9611196,33.2399551 C24.9611196,33.7885934 24.5172548,34.2333527 23.9611196,34.2333527 C23.4088349,34.2333527 22.9611196,33.7884064 22.9611196,33.2399551 L22.9611196,17.6878908 Z"></path>
        </g>
    </g>
</svg>

<svg width="48" height="48" viewBox="0 0 48 48" xmlns="http://www.w3.org/2000/svg"><title>icon-arrow-alt__up</title><path d="M22.961 17.688l-1.09 1.09a.993.993 0 0 1-1.408-.006 1 1 0 0 1-.007-1.408l2.842-2.841a.984.984 0 0 1 .697-.29c.262.004.514.1.704.29l2.842 2.841a.993.993 0 0 1-.007 1.408 1 1 0 0 1-1.408.006l-1.165-1.165V33.24a.994.994 0 0 1-1 .993c-.552 0-1-.445-1-.993V17.688z" fill="#2D2D2D" fill-rule="evenodd"/></svg>
